rospo-icon-theme-classic-common/16x16/apps/bpython.svg

<svg height="16" width="16" xmlns="http://www.w3.org/2000/svg"><path d="m4.0333335-.00000004c-1.6806402 0-3.03333352.96633332-3.03333352 2.16666664v3.0333334 4.7998664h6.93333352 1.3c.7666665 0 1.7666665-.9998664 1.7666665-3.0333332 0-1.9665332-1-2.9665332-1.7666665-2.9663665h-4.2333332v1.9996666h1.4423956 1.2431248c.8571763.0001667 1.3144793.0001667 1.3144793 1.0001667s-.5114619 1-1.3144793 1h-3.6855207v-.889248-.7549708-1.0094478-.3466668-1.5329998-.4666668h4v-.8333334c0-1.20033332-1.4992265-2.16666664-3.1798665-2.16666664z" fill="#4795d1"/><path d="m6 1h1v1h-1z" fill="#fff"/><path d="m8.0333335 16c-1.6806402 0-3.0333335-.966333-3.0333335-2.166667v-3.033333-4.7998664h6.933334 1.3c.766666 0 1.766666.9998664 1.766666 3.0333332 0 1.9665332-1 2.9665332-1.766666 2.9663662h-4.2333337v-1.999666h1.4423957 1.243125c.857176-.000167 1.314479-.000167 1.314479-1.000167s-.511462-1-1.314479-1h-3.685521v.889248.7549708 1.0094482.346666 1.533.466667h4v .833333c0 1.200334-1.499226 2.166667-3.1798665 2.166667z" fill="#ffc851"/><path d="m10-15h1v1h-1z" fill="#fff" transform="scale(1 -1)"/><path d="m7.6855469 6c .8571763.0001667 1.3144531 0 1.3144531 1s-.5114357 1-1.3144531 1h .3144531 2.892578c.06339-.3112628.107422-.6479828.107422-1.0332031 0-.3583746-.042606-.6728235-.101562-.9667969z" fill="#4795d1"/></svg>

<svg xmlns="http://www.w3.org/2000/svg" width="16" height="16" version="1">
 <path style="fill:#4795d1" d="m 4.0333335,-4e-8 c -1.6806402,0 -3.03333352,0.96633332 -3.03333352,2.16666664 l 0,3.0333334 0,4.7998664 6.93333352,0 1.3,0 C 10,9.9998664 11,9 11,6.9665332 11,5 10,4 9.2333335,4.0001667 l -4.2333332,0 0,1.9996666 1.4423956,0 1.2431248,0 C 8.542697,6 9,6 9,7 9,8 8.4885381,8 7.6855207,8 L 4,8 4,7.110752 4,6.3557812 4,5.3463334 4,4.9996666 4,3.4666668 4,3 8,3 8,2.1666666 C 8,0.96633328 6.5007735,-4e-8 4.8201335,-4e-8 Z"/>
 <rect style="fill:#ffffff" width="1" height="1" x="6" y="1"/>
 <path style="fill:#ffc851" d="M 8.0333335,16 C 6.3526933,16 5,15.033667 5,13.833333 L 5,10.8 5,6.0001336 l 6.933334,0 1.3,0 C 14,6.0001336 15,7 15,9.0334668 15,11 14,12 13.233334,11.999833 l -4.2333337,0 0,-1.999666 1.4423957,0 1.243125,0 C 12.542697,10 13,10 13,9 13,8 12.488538,8 11.685521,8 L 8,8 l 0,0.889248 0,0.7549708 0,1.0094482 0,0.346666 0,1.533 L 8,13 l 4,0 0,0.833333 C 12,15.033667 10.500774,16 8.8201335,16 Z"/>
 <rect style="fill:#ffffff" width="1" height="1" x="10" y="-15" transform="scale(1,-1)"/>
 <path style="fill:#4795d1" d="M 7.6855469,6 C 8.5427232,6.0001667 9,6 9,7 9,8 8.4885643,8 7.6855469,8 8,8 8,8 8,8 l 2.892578,0 C 10.955968,7.6887372 11,7.3520172 11,6.9667969 11,6.6084223 10.957394,6.2939734 10.898438,6 Z"/>
</svg>
